material/.icons/material/artstation.svg

<svg xmlns="http://www.w3.org/2000/svg" viewBox="0 0 24 24"><path d="M1.77 16.88l1.73 2.98c.34.68 1.04 1.14 1.83 1.14h11.46l-2.36-4.12H1.77m20.46.02c0-.4-.12-.79-.33-1.12L15.17 4.1A2.04 2.04 0 0013.35 3H9.8l10.38 18 1.64-2.86c.31-.54.41-.78.41-1.24m-9.5-2.96L8.1 5.92l-4.65 8.02h9.28z"/></svg>

<?xml version="1.0" encoding="UTF-8"?><!DOCTYPE svg PUBLIC "-//W3C//DTD SVG 1.1//EN" "http://www.w3.org/Graphics/SVG/1.1/DTD/svg11.dtd"><svg xmlns="http://www.w3.org/2000/svg" xmlns:xlink="http://www.w3.org/1999/xlink" version="1.1" id="mdi-artstation" width="24" height="24" viewBox="0 0 24 24"><path d="M1.77,16.88L3.5,19.86C3.84,20.54 4.54,21 5.33,21H16.79L14.43,16.88H1.77M22.23,16.9C22.23,16.5 22.11,16.11 21.9,15.78L15.17,4.1C14.82,3.44 14.15,3 13.35,3H9.8L20.18,21L21.82,18.14C22.13,17.6 22.23,17.36 22.23,16.9M12.73,13.94L8.1,5.92L3.45,13.94H12.73Z" /></svg>
